X:1
T:Title
%%score { 1 | 2 }
L:1/8
M:6/8
K:G
V:1 treble nm="Grand Piano"
V:2 treble 
V:1
 z3 z2[Q:1/4=100] G | B>BB BAG | GFF F2 F | [Fc]>[Fc][Fc] [Ac][GB][FA] | AGG G2 B | %5
 d>dd d[Fc][GB] |[M:7/8] [EA][EA][EB] [Ec]3 [EFc] |[M:3/4] [DGB]>[CGA] GG FE | D>F A [B,DG]3 | %9
[M:1/8] B |[M:3/4] d3 d- d/e/d | G3 G3 | [FA]3 [FA]- [FA]/[GB]/[Ac] |[M:5/8] B3 d2 |[M:1/8] B | %15
[M:3/4] d3 d- d/e/d |[M:7/8] G3 G3 [EA] |[M:3/4] [DGB]<[Gd] [Gd] [GB]2 [DA] | %18
[M:5/8] [B,DG]-[B,DG]- [B,DG]3 |] %19
V:2
 z3 z2 [G,B,D] | [G,DG]>[G,DG][G,DG] [G,DG][G,CG][K:bass][G,B,D] | %2
 [D,B,D][D,A,D][D,B,D] [D,CD]2 [D,CD] | [D,A,]>[D,A,][D,A,] [D,D][D,D][D,D] | %4
 [G,CE][G,B,D][G,B,D] [G,B,D]2 [G,D] | [G,B,G]>[G,B,G][G,B,G] [G,B,G][K:bass][D,A,][E,G,] | %6
[M:7/8] [C,G,][C,G,][B,,^G,] [A,,A,]3 A,, |[M:3/4] D,>D, [D,B,][D,B,D] [D,A,D][D,G,D] | %8
 [D,F,C]>[D,A,D] [D,CD] [G,,G,]3 |[M:1/8][K:treble] [G,D] | %10
[M:3/4] [G,B,G]3 [G,B,G]- [G,B,G]/[G,CG]/[G,B,G] | [G,B,D]3 [G,B,D]3 | %12
 [D,D]3 [D,D]- [D,D]/[D,D]/[D,D] |[M:5/8] [G,DG]3 [G,,G,B,G]2 |[M:1/8][K:treble] [G,D] | %15
[M:3/4] [G,B,G]3 [G,B,G]- [G,B,G]/[G,CG]/[G,B,G] |[M:7/8][K:bass] [G,B,D]3 [E,B,E]3 C, | %17
[M:3/4] D,<[D,B,] [D,B,] [D,D]2 [D,C] |[M:5/8] [G,,G,]-[G,,G,]- [G,,G,]3 |] %19

